icons/plus-circle-16.svg

<svg xmlns="http://www.w3.org/2000/svg" width="16" height="16" viewBox="0 0 16 16">
  <defs/>
  <path d="M8,0 C12.418,0 16,3.582 16,8 C16,12.418 12.418,16 8,16 C3.582,16 0,12.418 0,8 C0,3.582 3.582,0 8,0 Z M1.5,8 C1.5,11.59 4.41,14.5 8,14.5 C11.59,14.5 14.5,11.59 14.5,8 C14.5,4.41 11.59,1.5 8,1.5 C4.41,1.5 1.5,4.41 1.5,8 Z M8.75,4.75 L8.75,7.25 L11.25,7.25 C11.664,7.25 12,7.586 12,8 C12,8.414 11.664,8.75 11.25,8.75 L8.75,8.75 L8.75,11.25 C8.75,11.664 8.414,12 8,12 C7.586,12 7.25,11.664 7.25,11.25 L7.25,8.75 L4.75,8.75 C4.336,8.75 4,8.414 4,8 C4,7.586 4.336,7.25 4.75,7.25 L7.25,7.25 L7.25,4.75 C7.25,4.336 7.586,4 8,4 C8.414,4 8.75,4.336 8.75,4.75 Z"/>
</svg>

<svg xmlns="http://www.w3.org/2000/svg" width="16" height="16" viewBox="0 0 16 16"><path d="M8 0a8 8 0 110 16A8 8 0 018 0zM1.5 8a6.5 6.5 0 1013 0 6.5 6.5 0 00-13 0zm7.25-3.25v2.5h2.5a.75.75 0 010 1.5h-2.5v2.5a.75.75 0 01-1.5 0v-2.5h-2.5a.75.75 0 010-1.5h2.5v-2.5a.75.75 0 011.5 0z"/></svg>
